flaticon/transportation/truck-5.svg

<svg xmlns="http://www.w3.org/2000/svg" width="32" height="32" viewBox="0 0 24 24">
    <path d="M5.171875 16.105469C3.984375 16.105469 3.023438 16.914062 3.023438 17.914062 3.023438 18.917969 3.984375 19.726562 5.171875 19.726562 6.359375 19.726562 7.324219 18.917969 7.324219 17.914062 7.324219 16.914062 6.359375 16.105469 5.171875 16.105469zM5.171875 18.707031C4.546875 18.707031 4.042969 18.351562 4.042969 17.914062 4.042969 17.480469 4.546875 17.125 5.171875 17.125 5.796875 17.125 6.304688 17.480469 6.304688 17.914062 6.304688 18.351562 5.796875 18.707031 5.171875 18.707031zM18.878906 16.105469C17.691406 16.105469 16.730469 16.914062 16.730469 17.914062 16.730469 18.917969 17.691406 19.726562 18.878906 19.726562 20.066406 19.726562 21.03125 18.917969 21.03125 17.914062 21.03125 16.914062 20.066406 16.105469 18.878906 16.105469zM18.878906 18.707031C18.253906 18.707031 17.75 18.351562 17.75 17.914062 17.75 17.480469 18.253906 17.125 18.878906 17.125 19.503906 17.125 20.011719 17.480469 20.011719 17.914062 20.011719 18.351562 19.503906 18.707031 18.878906 18.707031zM13.855469 15.496094L14.878906 15.496094 14.878906 18.6875 13.855469 18.6875zM11.515625 15.496094L12.535156 15.496094 12.535156 18.6875 11.515625 18.6875zM9.175781 15.496094L10.195312 15.496094 10.195312 18.6875 9.175781 18.6875zM9.175781 15.496094"/>
    <path d="M 22.332031 8.019531 L 22.332031 0 L 1.667969 0 L 1.667969 8.019531 C 0.703125 8.273438 0 9.050781 0 9.96875 L 0 10.539062 C 0 11.664062 1.054688 12.574219 2.351562 12.574219 L 2.9375 12.574219 L 2.28125 13.953125 C 1.757812 15.050781 1.492188 16.207031 1.496094 17.390625 L 1.5 18.667969 C 1.503906 19.976562 2.652344 21.0625 4.132812 21.21875 L 4.132812 22.617188 C 4.132812 23.378906 4.832031 24 5.695312 24 L 7.621094 24 C 8.480469 24 9.183594 23.378906 9.183594 22.617188 L 9.183594 21.230469 L 14.871094 21.222656 L 14.871094 22.617188 C 14.871094 23.378906 15.570312 24 16.433594 24 L 18.359375 24 C 19.21875 24 19.917969 23.378906 19.917969 22.617188 L 19.917969 21.191406 C 20.570312 21.125 21.171875 20.878906 21.644531 20.484375 C 22.234375 19.996094 22.558594 19.335938 22.558594 18.628906 L 22.554688 17.351562 C 22.550781 16.167969 22.28125 15.011719 21.75 13.914062 L 21.113281 12.574219 L 21.648438 12.574219 C 22.945312 12.574219 24 11.664062 24 10.539062 L 24 9.96875 C 24 9.050781 23.296875 8.273438 22.332031 8.019531 Z M 21.308594 1.019531 L 21.308594 7.933594 L 19.773438 7.933594 L 19.652344 7.203125 C 19.488281 6.21875 18.527344 5.5 17.375 5.5 L 6.675781 5.5 C 5.523438 5.5 4.566406 6.21875 4.398438 7.203125 L 4.277344 7.933594 L 2.691406 7.933594 L 2.691406 1.019531 Z M 18.925781 10.816406 C 18.683594 11.101562 18.28125 11.269531 17.847656 11.269531 L 6.207031 11.269531 C 5.769531 11.269531 5.367188 11.101562 5.128906 10.816406 C 5.011719 10.683594 4.886719 10.460938 4.9375 10.175781 L 5.40625 7.375 C 5.488281 6.890625 6.035156 6.523438 6.675781 6.523438 L 17.375 6.523438 C 18.019531 6.523438 18.5625 6.886719 18.644531 7.375 L 19.117188 10.175781 C 19.164062 10.460938 19.039062 10.683594 18.925781 10.816406 Z M 2.351562 11.554688 C 1.617188 11.554688 1.019531 11.097656 1.019531 10.539062 L 1.019531 9.96875 C 1.019531 9.410156 1.617188 8.953125 2.351562 8.953125 L 4.105469 8.953125 L 3.929688 10.007812 C 3.898438 10.183594 3.898438 10.355469 3.917969 10.527344 L 3.425781 11.554688 Z M 8.160156 22.617188 C 8.160156 22.789062 7.9375 22.980469 7.621094 22.980469 L 5.695312 22.980469 C 5.375 22.980469 5.152344 22.789062 5.152344 22.617188 L 5.152344 21.238281 L 8.160156 21.234375 Z M 18.359375 22.980469 L 16.433594 22.980469 C 16.113281 22.980469 15.890625 22.789062 15.890625 22.617188 L 15.890625 21.21875 L 18.898438 21.214844 L 18.898438 22.617188 C 18.898438 22.789062 18.675781 22.980469 18.359375 22.980469 Z M 21.535156 18.628906 C 21.539062 19.027344 21.34375 19.410156 20.992188 19.699219 C 20.613281 20.015625 20.101562 20.191406 19.554688 20.191406 L 4.511719 20.21875 C 4.507812 20.21875 4.507812 20.21875 4.507812 20.21875 C 3.414062 20.21875 2.523438 19.523438 2.519531 18.664062 L 2.515625 17.390625 C 2.515625 16.359375 2.746094 15.351562 3.203125 14.390625 L 4.511719 11.648438 C 4.945312 12.054688 5.558594 12.289062 6.207031 12.289062 L 17.847656 12.289062 C 18.484375 12.289062 19.09375 12.058594 19.527344 11.660156 L 20.832031 14.359375 C 21.292969 15.316406 21.53125 16.324219 21.53125 17.355469 Z M 22.980469 10.539062 C 22.980469 11.097656 22.382812 11.554688 21.648438 11.554688 L 20.625 11.554688 L 20.132812 10.523438 C 20.15625 10.355469 20.152344 10.179688 20.125 10.007812 L 19.945312 8.953125 L 21.648438 8.953125 C 22.382812 8.953125 22.980469 9.410156 22.980469 9.96875 Z M 22.980469 10.539062"/>
</svg>

<svg xmlns="http://www.w3.org/2000/svg" width="32" height="32" viewBox="0 0 24 24">
    <path d="M5.172 16.105c-1.188 0-2.149.81-2.149 1.81 0 1.003.961 1.812 2.149 1.812 1.187 0 2.152-.809 2.152-1.813 0-1-.965-1.809-2.152-1.809zm0 2.602c-.625 0-1.129-.355-1.129-.793 0-.434.504-.789 1.129-.789s1.133.355 1.133.79c0 .437-.508.792-1.133.792zm0 0M18.879 16.105c-1.188 0-2.149.81-2.149 1.81 0 1.003.961 1.812 2.149 1.812 1.187 0 2.152-.809 2.152-1.813 0-1-.965-1.809-2.152-1.809zm0 2.602c-.625 0-1.129-.355-1.129-.793 0-.434.504-.789 1.129-.789s1.133.355 1.133.79c0 .437-.508.792-1.133.792zm0 0M13.855 15.496h1.024v3.191h-1.024zm0 0M11.516 15.496h1.02v3.191h-1.02zm0 0M9.176 15.496h1.02v3.191h-1.02zm0 0"/>
    <path d="M22.332 8.02V0H1.668v8.02C.703 8.273 0 9.05 0 9.969v.57c0 1.125 1.055 2.035 2.352 2.035h.586l-.657 1.38a7.872 7.872 0 0 0-.785 3.437l.004 1.277c.004 1.309 1.152 2.395 2.633 2.55v1.4c0 .76.699 1.382 1.562 1.382h1.926c.86 0 1.563-.621 1.563-1.383V21.23l5.687-.007v1.394c0 .762.7 1.383 1.563 1.383h1.925c.86 0 1.559-.621 1.559-1.383v-1.426a3.19 3.19 0 0 0 1.727-.707c.59-.488.914-1.148.914-1.855l-.004-1.277a7.894 7.894 0 0 0-.805-3.438l-.637-1.34h.535c1.297 0 2.352-.91 2.352-2.035v-.57c0-.918-.703-1.696-1.668-1.95zm-1.023-7v6.914h-1.536l-.12-.73c-.165-.985-1.126-1.704-2.278-1.704h-10.7c-1.152 0-2.109.719-2.277 1.703l-.12.73H2.69V1.02zm-2.383 9.796c-.242.286-.645.454-1.078.454H6.207c-.437 0-.84-.168-1.078-.454a.759.759 0 0 1-.191-.64l.468-2.801c.082-.484.63-.852 1.27-.852h10.699c.645 0 1.188.364 1.27.852l.472 2.8a.784.784 0 0 1-.191.641zm-16.574.739c-.735 0-1.332-.457-1.332-1.016v-.57c0-.559.597-1.016 1.332-1.016h1.753l-.175 1.055a1.786 1.786 0 0 0-.012.52l-.492 1.027zM8.16 22.617c0 .172-.223.363-.539.363H5.695c-.32 0-.543-.19-.543-.363v-1.379l3.008-.004zm10.2.363h-1.926c-.32 0-.543-.19-.543-.363V21.22l3.007-.004v1.402c0 .172-.222.363-.539.363zm3.175-4.351c.004.398-.191.781-.543 1.07-.379.317-.89.492-1.437.492l-15.043.028h-.004c-1.094 0-1.985-.696-1.988-1.555l-.004-1.273c0-1.032.23-2.04.687-3l1.309-2.743c.433.407 1.047.641 1.695.641h11.64c.637 0 1.247-.23 1.68-.629l1.305 2.7c.461.956.7 1.964.7 2.995zm1.445-8.09c0 .559-.597 1.016-1.332 1.016h-1.023l-.492-1.032c.023-.168.02-.343-.008-.515l-.18-1.055h1.703c.735 0 1.332.457 1.332 1.016zm0 0"/>
</svg>
